src/symbols/currency/1F4B2.svg

<svg id="emoji" viewBox="0 0 72 72" xmlns="http://www.w3.org/2000/svg">
  <g id="grid">
    <path fill="#b3b3b3" d="M68,4V68H4V4H68m4-4H0V72H72V0Z"/>
    <path fill="none" stroke="#00a5ff" stroke-miterlimit="10" stroke-width="0.1" d="M12.923,10.9583H59.0769A1.9231,1.9231,0,0,1,61,12.8814V59.0352a1.9231,1.9231,0,0,1-1.9231,1.9231H12.9231A1.9231,1.9231,0,0,1,11,59.0352V12.8813A1.923,1.923,0,0,1,12.923,10.9583Z"/>
    <rect x="16" y="4" rx="2.2537" width="40" height="64" fill="none" stroke="#00a5ff" stroke-miterlimit="10" stroke-width="0.1"/>
    <rect x="16" y="4" rx="2.2537" width="40" height="64" transform="translate(72) rotate(90)" fill="none" stroke="#00a5ff" stroke-miterlimit="10" stroke-width="0.1"/>
    <circle cx="36" cy="36" r="29" fill="none" stroke="#00a5ff" stroke-miterlimit="10" stroke-width="0.1"/>
  </g>
  <g id="color">
    <path id="_1F4B2" fill="#9b9b9a" d="M35.5,33c-1.76,0-7.5-.3965-7.5-5.5S33.74,22,35.5,22C44,22,44,25.9956,44,27.5a3.5,3.5,0,0,0,7,0c0-6.68-4.2306-11.05-11.5-12.1917V12.5a4,4,0,0,0-8,0v2.9037C25.0883,16.7194,21,21.2447,21,27.5,21,34.9766,26.8271,40,35.5,40c2.94,0,8.5,1.1494,8.5,5.5S38.44,51,35.5,51c-1.76,0-7.5-.3965-7.5-5.5a3.5,3.5,0,0,0-7,0c0,6.2553,4.0883,10.7806,10.5,12.0963V59.5a4,4,0,0,0,8,0V57.601C45.6858,56.3727,51,52.2729,51,45.5,51,37.2939,43.2021,33,35.5,33Z"/>
  </g>
  <g id="line">
    <path id="_1F4B2-2" fill="none" stroke="#000" stroke-miterlimit="10" stroke-width="2" d="M35.5,33c-1.76,0-7.5-.3965-7.5-5.5S33.74,22,35.5,22C44,22,44,25.9956,44,27.5a3.5,3.5,0,0,0,7,0c0-6.68-4.2306-11.05-11.5-12.1917V12.5a4,4,0,0,0-8,0v2.9037C25.0883,16.7194,21,21.2447,21,27.5,21,34.9766,26.8271,40,35.5,40c2.94,0,8.5,1.1494,8.5,5.5S38.44,51,35.5,51c-1.76,0-7.5-.3965-7.5-5.5a3.5,3.5,0,0,0-7,0c0,6.2553,4.0883,10.7806,10.5,12.0963V59.5a4,4,0,0,0,8,0V57.601C45.6858,56.3727,51,52.2729,51,45.5,51,37.2939,43.2021,33,35.5,33Z"/>
  </g>
</svg>

<svg viewBox="0 0 72 72" xmlns="http://www.w3.org/2000/svg"><path fill="#b3b3b3" d="M68 4v64H4V4h64m4-4H0v72h72V0z"/><path fill="none" stroke="#00a5ff" stroke-miterlimit="10" stroke-width=".1" d="M12.923 10.958h46.154A1.923 1.923 0 0161 12.881v46.154a1.923 1.923 0 01-1.923 1.923H12.923A1.923 1.923 0 0111 59.035V12.881a1.923 1.923 0 011.923-1.923z"/><rect x="16" y="4" rx="2.254" width="40" height="64" fill="none" stroke="#00a5ff" stroke-miterlimit="10" stroke-width=".1"/><rect x="16" y="4" rx="2.254" width="40" height="64" transform="rotate(90 36 36)" fill="none" stroke="#00a5ff" stroke-miterlimit="10" stroke-width=".1"/><circle cx="36" cy="36" r="29" fill="none" stroke="#00a5ff" stroke-miterlimit="10" stroke-width=".1"/><path d="M35.5 33c-1.76 0-7.5-.397-7.5-5.5s5.74-5.5 7.5-5.5c8.5 0 8.5 3.996 8.5 5.5a3.5 3.5 0 007 0c0-6.68-4.23-11.05-11.5-12.192V12.5a4 4 0 00-8 0v2.904C25.088 16.719 21 21.244 21 27.5 21 34.977 26.827 40 35.5 40c2.94 0 8.5 1.15 8.5 5.5S38.44 51 35.5 51c-1.76 0-7.5-.397-7.5-5.5a3.5 3.5 0 00-7 0c0 6.255 4.088 10.78 10.5 12.096V59.5a4 4 0 008 0v-1.899C45.686 56.373 51 52.273 51 45.5 51 37.294 43.202 33 35.5 33z" stroke-linecap="round" stroke-miterlimit="10" stroke-width="6" stroke="#fff" fill="none" stroke-linejoin="round"/><path fill="#9b9b9a" d="M35.5 33c-1.76 0-7.5-.397-7.5-5.5s5.74-5.5 7.5-5.5c8.5 0 8.5 3.996 8.5 5.5a3.5 3.5 0 007 0c0-6.68-4.23-11.05-11.5-12.192V12.5a4 4 0 00-8 0v2.904C25.088 16.719 21 21.244 21 27.5 21 34.977 26.827 40 35.5 40c2.94 0 8.5 1.15 8.5 5.5S38.44 51 35.5 51c-1.76 0-7.5-.397-7.5-5.5a3.5 3.5 0 00-7 0c0 6.255 4.088 10.78 10.5 12.096V59.5a4 4 0 008 0v-1.899C45.686 56.373 51 52.273 51 45.5 51 37.294 43.202 33 35.5 33z"/><path fill="none" stroke="#000" stroke-miterlimit="10" stroke-width="2" d="M35.5 33c-1.76 0-7.5-.397-7.5-5.5s5.74-5.5 7.5-5.5c8.5 0 8.5 3.996 8.5 5.5a3.5 3.5 0 007 0c0-6.68-4.23-11.05-11.5-12.192V12.5a4 4 0 00-8 0v2.904C25.088 16.719 21 21.244 21 27.5 21 34.977 26.827 40 35.5 40c2.94 0 8.5 1.15 8.5 5.5S38.44 51 35.5 51c-1.76 0-7.5-.397-7.5-5.5a3.5 3.5 0 00-7 0c0 6.255 4.088 10.78 10.5 12.096V59.5a4 4 0 008 0v-1.899C45.686 56.373 51 52.273 51 45.5 51 37.294 43.202 33 35.5 33z"/></svg>
